icons/cholera.svg

<svg width="48" height="48" viewBox="0 0 48 48" fill="none" xmlns="http://www.w3.org/2000/svg">
<path fill-rule="evenodd" clip-rule="evenodd" d="M31.9381 13C31.446 9.05369 28.0796 6 24 6H10V4H24C29.1853 4 33.4489 7.94668 33.9506 13H36V19H24V13H26C26 12.4477 25.5523 12 25 12H10V10H25C26.6569 10 28 11.3431 28 13H31.9381ZM26 17V15H34V17H26Z" fill="black"/>
<path d="M27.0296 33.5175C26.4774 33.524 26.0244 33.0816 26.0179 32.5294C26.0016 31.1488 27.1076 30.0163 28.4882 30C29.0404 29.9935 29.4934 30.4359 29.4999 30.9882C29.5065 31.5404 29.0641 31.9934 28.5118 31.9999C28.2357 32.0032 28.0145 32.2296 28.0178 32.5058C28.0243 33.058 27.5819 33.511 27.0296 33.5175Z" fill="black"/>
<path d="M32 31C31.4477 31 31 31.4477 31 32C31 32.5523 31.4477 33 32 33C32.2761 33 32.5 33.2239 32.5 33.5C32.5 34.0523 32.9477 34.5 33.5 34.5C34.0523 34.5 34.5 34.0523 34.5 33.5C34.5 32.1193 33.3807 31 32 31Z" fill="black"/>
<path d="M29.7634 38.2507C29.8818 38.7901 29.5405 39.3234 29.001 39.4418C27.6524 39.7379 26.3192 38.8846 26.0231 37.536C25.9047 36.9966 26.246 36.4633 26.7855 36.3448C27.3249 36.2264 27.8582 36.5677 27.9766 37.1072C28.0358 37.3769 28.3025 37.5476 28.5722 37.4883C29.1117 37.3699 29.645 37.7112 29.7634 38.2507Z" fill="black"/>
<path d="M33 39C33.5523 39 34 38.5523 34 38C34 37.4477 33.5523 37 33 37C32.4477 37 32 37.4477 32 38C32 38.5523 32.4477 39 33 39Z" fill="black"/>
<path d="M31 28C31 28.5523 30.5523 29 30 29C29.4477 29 29 28.5523 29 28C29 27.4477 29.4477 27 30 27C30.5523 27 31 27.4477 31 28Z" fill="black"/>
<path d="M30 36C30.5523 36 31 35.5523 31 35C31 34.4477 30.5523 34 30 34C29.4477 34 29 34.4477 29 35C29 35.5523 29.4477 36 30 36Z" fill="black"/>
<path fill-rule="evenodd" clip-rule="evenodd" d="M38 35.6364C38 40.2555 34.4183 44 30 44C25.5817 44 22 40.2555 22 35.6364C22 28.3182 30 21 30 21C30 21 38 28.3182 38 35.6364ZM36 35.6364C36 39.2356 33.2309 42 30 42C26.7691 42 24 39.2356 24 35.6364C24 32.6324 25.6812 29.4071 27.6163 26.7518C28.4666 25.5851 29.32 24.5903 30 23.8509C30.68 24.5903 31.5334 25.5851 32.3837 26.7518C34.3188 29.4071 36 32.6324 36 35.6364Z" fill="black"/>
</svg>

<svg
  xmlns="http://www.w3.org/2000/svg"
  width="24"
  height="24"
  viewBox="0 0 24 24"
  fill="none"
  stroke="currentColor"
  stroke-width="2"
  stroke-linecap="round"
  stroke-linejoin="round"
>
  <path
    fill-rule="evenodd"
    d="M31.938 13A8 8 0 0 0 24 6H10V4h14c5.185 0 9.449 3.947 9.95 9H36v6H24v-6h2a1 1 0 0 0-1-1H10v-2h15a3 3 0 0 1 3 3zM26 17v-2h8v2z"
    clip-rule="evenodd"
  />
  <path d="M27.03 33.518a1 1 0 0 1-1.012-.989A2.5 2.5 0 0 1 28.488 30a1 1 0 0 1 .024 2 .5.5 0 0 0-.494.506 1 1 0 0 1-.988 1.011" />
  <path d="M32 31a1 1 0 1 0 0 2 .5.5 0 0 1 .5.5 1 1 0 1 0 2 0A2.5 2.5 0 0 0 32 31" />
  <path d="M29.763 38.25a1 1 0 0 1-.762 1.192 2.5 2.5 0 0 1-2.978-1.906 1 1 0 0 1 1.954-.429.5.5 0 0 0 .595.381 1 1 0 0 1 1.191.763" />
  <path d="M33 39a1 1 0 1 0 0-2 1 1 0 0 0 0 2" />
  <path d="M31 28a1 1 0 1 1-2 0 1 1 0 0 1 2 0" />
  <path d="M30 36a1 1 0 1 0 0-2 1 1 0 0 0 0 2" />
  <path
    fill-rule="evenodd"
    d="M38 35.636C38 40.256 34.418 44 30 44s-8-3.745-8-8.364C22 28.318 30 21 30 21s8 7.318 8 14.636m-2 0c0 3.6-2.77 6.364-6 6.364s-6-2.764-6-6.364c0-3.004 1.681-6.229 3.616-8.884A33 33 0 0 1 30 23.85c.68.74 1.533 1.734 2.384 2.9C34.319 29.408 36 32.633 36 35.637"
    clip-rule="evenodd"
  />
</svg>
